!!!Melodie: eigene
!!!Typ: Lied
**kern	**silbe	**silbe	**silbe	**silbe	**silbe	**silbe	**silbe	**silbe
*clefG2	*lang:DE	*lang:DE	*lang:DE	*lang:DE	*lang:DE	*lang:DE	*lang:DE	*lang:DE
*k[b-]	*	*	*	*	*	*	*	*
*M4/4	*	*	*	*	*	*	*	*
*met(c)	*	*	*	*	*	*	*	*
4g	Nun	Nicht	Der	Er	Sein	Der	Dein'	Lob
4g	komm	von	Jung#	ging	Lauf	du	Krip#	sei
4f	der	Manns#	#frau'	aus	kam	bist	#pe	Gott
4b-	Hei#	#blut,	Leib	der	vom	dem	glänzt	dem
=	=	=	=	=	=	=	=	=
8La	#den	noch	schwang#	Kam#	Va#	Va#	hell	Va#
8Jg	|	|	|	|	|	|	|	|
4a	Hei#	von	#er	#mer	#ter	#ter	und	#ter
2g	#land	Fleisch,	ward,	sein,	her,	gleich,	klar,	g'tan,
=	=	=	=	=	=	=	=	=
4g	der	al#	doch	den	und	führ'	die	Lob
4b-	Jung#	#lein	bleibt	kön’g#	kehrt'	hi#	Nacht	sei
4.cc	#frau#	von	Keusch#	#li#	wie#	#naus	gibt	Gott
8b-	#en	dem	#heit	#chen	#der	den	ein'	sei’m
=	=	=	=	=	=	=	=	=
4cc	Kind	heil#	rein	Saal	zum	Sieg	neu'	eig#
4dd	er#	#'gen	be#	so	Va#	im	Licht	#'nen
2b-	#kannt	Geist	#wahrt,	rein,	#ter,	Fleisch,	dar,	Sohn,
=	=	=	=	=	=	=	=	=
4b-	dass	ist	leucht'	Gott	fuhr	dass	dun#	Lob
4cc	sich	Gott's	her#	von	hi#	dein	#kel	sei
4dd	wun#	Wort	#vor	Art	#nun#	ew'g	muss	Gott
4b-	#dert	wor#	manch'	und	#ter	Got#	nicht	dem
=	=	=	=	=	=	=	=	=
4cc	al#	#den	Tu#	Mensch	zu	#tes#	kom#	heil#
8Lb-	#le	ein	#gend	ein	der	#ge#	#men	#'gen
8Ja	|	|	|	|	|	|	|	|
2g	Welt,	Mensch,	schon,	Held,	Höll'	#walt	drein,	Geist,
=	=	=	=	=	=	=	=	=
4g	Gott	und	Gott	sein'	und	in	der	im#
4g	solch’	blüht	da	Weg	wi#	uns	Glaub'	#mer
4f	Ge#	ein	war	er	#der	das	bleibt	und
4b-	#burt	Frucht	in	zu	zu	krank'	im#	in
=	=	=	=	=	=	=	=	=
8La	ihm	Wei#	sei#	lau#	Go#	Fleisch	#mer	E#
8Jg	|	|	|	|	|	|	|	|
4a	be#	#bes#	#nem	#fen	#tes	er#	im	#wig#
0g	#stellt.	#fleisch.	Thron.	eilt.	Stuhl.	#halt'.	Schein.	#keit.
==	==	==	==	==	==	==	==	==
*-	*-	*-	*-	*-	*-	*-	*-	*-
